static/img/kroki/ebb08751737883e739225db00bafb88e.svg

<?xml version="1.0" encoding="us-ascii" standalone="no"?><svg xmlns="http://www.w3.org/2000/svg" xmlns:xlink="http://www.w3.org/1999/xlink" contentStyleType="text/css" height="1004px" preserveAspectRatio="none" style="width:412px;height:1004px;" version="1.1" viewBox="0 0 412 1004" width="412px" zoomAndPan="magnify"><defs/><g><!--class aws_ec2_elastic_ip--><g id="elem_aws_ec2_elastic_ip"><rect codeLine="22" fill="#3D176E" height="337.0547" id="aws_ec2_elastic_ip" rx="2.5" ry="2.5" style="stroke:#000D19;stroke-width:0.5;" width="308" x="38.5" y="660.15"/><ellipse cx="104.75" cy="680.0445" fill="#ADD1B2" rx="11" ry="11" style="stroke:#181818;stroke-width:1.0;"/><path d="M107.7188,685.6852 Q107.1406,685.982 106.5,686.1227 Q105.8594,686.2789 105.1563,686.2789 Q102.6563,686.2789 101.3281,684.6383 Q100.0156,682.982 100.0156,679.857 Q100.0156,676.732 101.3281,675.0758 Q102.6563,673.4195 105.1563,673.4195 Q105.8594,673.4195 106.5,673.5758 Q107.1563,673.732 107.7188,674.0289 L107.7188,676.7477 Q107.0938,676.1695 106.5,675.9039 Q105.9063,675.6227 105.2813,675.6227 Q103.9375,675.6227 103.25,676.7008 Q102.5625,677.7633 102.5625,679.857 Q102.5625,681.9508 103.25,683.0289 Q103.9375,684.0914 105.2813,684.0914 Q105.9063,684.0914 106.5,683.8258 Q107.0938,683.5445 107.7188,682.9664 L107.7188,685.6852 Z " fill="#000000"/><text fill="#D9B8FF" font-family="Helvetica" font-size="17" lengthAdjust="spacing" textLength="157" x="130.25" y="685.9298">aws_ec2_elastic_ip</text><line style="stroke:#000D19;stroke-width:0.5;" x1="39.5" x2="345.5" y1="699.9391" y2="699.9391"/><text fill="#D9B8FF" font-family="sans-serif" font-size="14" font-weight="bold" lengthAdjust="spacing" textLength="117" x="49.5" y="721.9342">ip_allocation_id</text><text fill="#D9B8FF" font-family="sans-serif" font-size="14" lengthAdjust="spacing" textLength="48" x="166.5" y="721.9342">: string</text><text fill="#D9B8FF" font-family="sans-serif" font-size="14" font-weight="bold" lengthAdjust="spacing" textLength="131" x="49.5" y="748.2311">ip_association_id</text><text fill="#D9B8FF" font-family="sans-serif" font-size="14" lengthAdjust="spacing" textLength="48" x="180.5" y="748.2311">: string</text><text fill="#D9B8FF" font-family="sans-serif" font-size="14" font-weight="bold" lengthAdjust="spacing" textLength="95" x="49.5" y="774.5279">ip_carrier_ip</text><text fill="#D9B8FF" font-family="sans-serif" font-size="14" lengthAdjust="spacing" textLength="48" x="144.5" y="774.5279">: string</text><text fill="#D9B8FF" font-family="sans-serif" font-size="14" font-weight="bold" lengthAdjust="spacing" textLength="178" x="49.5" y="800.8248">ip_customer_owned_ip</text><text fill="#D9B8FF" font-family="sans-serif" font-size="14" lengthAdjust="spacing" textLength="48" x="227.5" y="800.8248">: string</text><text fill="#D9B8FF" font-family="sans-serif" font-size="14" font-weight="bold" lengthAdjust="spacing" textLength="238" x="49.5" y="827.1217">ip_customer_owned_ipv4_pool</text><text fill="#D9B8FF" font-family="sans-serif" font-size="14" lengthAdjust="spacing" textLength="48" x="287.5" y="827.1217">: string</text><text fill="#D9B8FF" font-family="sans-serif" font-size="14" font-weight="bold" lengthAdjust="spacing" textLength="78" x="49.5" y="853.4186">ip_domain</text><text fill="#D9B8FF" font-family="sans-serif" font-size="14" lengthAdjust="spacing" textLength="48" x="127.5" y="853.4186">: string</text><text fill="#D9B8FF" font-family="sans-serif" font-size="14" font-weight="bold" lengthAdjust="spacing" textLength="202" x="49.5" y="879.7154">ip_network_border_group</text><text fill="#D9B8FF" font-family="sans-serif" font-size="14" lengthAdjust="spacing" textLength="48" x="251.5" y="879.7154">: string</text><text fill="#D9B8FF" font-family="sans-serif" font-size="14" font-weight="bold" lengthAdjust="spacing" textLength="186" x="49.5" y="906.0123">ip_network_interface_id</text><text fill="#D9B8FF" font-family="sans-serif" font-size="14" lengthAdjust="spacing" textLength="48" x="235.5" y="906.0123">: string</text><text fill="#D9B8FF" font-family="sans-serif" font-size="14" font-weight="bold" lengthAdjust="spacing" textLength="149" x="49.5" y="932.3092">ip_public_ipv4_pool</text><text fill="#D9B8FF" font-family="sans-serif" font-size="14" lengthAdjust="spacing" textLength="48" x="198.5" y="932.3092">: string</text><text fill="#D9B8FF" font-family="sans-serif" font-size="14" font-weight="bold" lengthAdjust="spacing" textLength="147" x="49.5" y="958.6061">private_ip_address</text><text fill="#D9B8FF" font-family="sans-serif" font-size="14" lengthAdjust="spacing" textLength="48" x="196.5" y="958.6061">: string</text><text fill="#D9B8FF" font-family="sans-serif" font-size="14" font-weight="bold" lengthAdjust="spacing" textLength="68" x="49.5" y="984.9029">public_ip</text><text fill="#D9B8FF" font-family="sans-serif" font-size="14" lengthAdjust="spacing" textLength="48" x="117.5" y="984.9029">: string</text></g><!--class aws_resource--><g id="elem_aws_resource"><rect codeLine="35" fill="#3D176E" height="74.0859" id="aws_resource" rx="2.5" ry="2.5" style="stroke:#000D19;stroke-width:0.5;" width="155" x="7" y="451.91"/><ellipse cx="22" cy="471.8045" fill="#ADD1B2" rx="11" ry="11" style="stroke:#181818;stroke-width:1.0;"/><path d="M24.9688,477.4452 Q24.3906,477.742 23.75,477.8827 Q23.1094,478.0389 22.4063,478.0389 Q19.9063,478.0389 18.5781,476.3983 Q17.2656,474.742 17.2656,471.617 Q17.2656,468.492 18.5781,466.8358 Q19.9063,465.1795 22.4063,465.1795 Q23.1094,465.1795 23.75,465.3358 Q24.4063,465.492 24.9688,465.7889 L24.9688,468.5077 Q24.3438,467.9295 23.75,467.6639 Q23.1563,467.3827 22.5313,467.3827 Q21.1875,467.3827 20.5,468.4608 Q19.8125,469.5233 19.8125,471.617 Q19.8125,473.7108 20.5,474.7889 Q21.1875,475.8514 22.5313,475.8514 Q23.1563,475.8514 23.75,475.5858 Q24.3438,475.3045 24.9688,474.7264 L24.9688,477.4452 Z " fill="#000000"/><text fill="#D9B8FF" font-family="Helvetica" font-size="17" lengthAdjust="spacing" textLength="113" x="41" y="477.6898">aws_resource</text><line style="stroke:#000D19;stroke-width:0.5;" x1="8" x2="161" y1="491.6991" y2="491.6991"/><text fill="#D9B8FF" font-family="sans-serif" font-size="14" font-weight="bold" lengthAdjust="spacing" textLength="26" x="18" y="513.6942">arn</text><text fill="#D9B8FF" font-family="sans-serif" font-size="14" lengthAdjust="spacing" textLength="48" x="44" y="513.6942">: string</text></g><!--class ip_address--><g id="elem_ip_address"><rect codeLine="38" fill="#3D176E" height="100.3828" id="ip_address" rx="2.5" ry="2.5" style="stroke:#000D19;stroke-width:0.5;" width="208" x="197.5" y="438.76"/><ellipse cx="248.75" cy="458.6545" fill="#ADD1B2" rx="11" ry="11" style="stroke:#181818;stroke-width:1.0;"/><path d="M251.7188,464.2952 Q251.1406,464.592 250.5,464.7327 Q249.8594,464.8889 249.1563,464.8889 Q246.6563,464.8889 245.3281,463.2483 Q244.0156,461.592 244.0156,458.467 Q244.0156,455.342 245.3281,453.6858 Q246.6563,452.0295 249.1563,452.0295 Q249.8594,452.0295 250.5,452.1858 Q251.1563,452.342 251.7188,452.6389 L251.7188,455.3577 Q251.0938,454.7795 250.5,454.5139 Q249.9063,454.2327 249.2813,454.2327 Q247.9375,454.2327 247.25,455.3108 Q246.5625,456.3733 246.5625,458.467 Q246.5625,460.5608 247.25,461.6389 Q247.9375,462.7014 249.2813,462.7014 Q249.9063,462.7014 250.5,462.4358 Q251.0938,462.1545 251.7188,461.5764 L251.7188,464.2952 Z " fill="#000000"/><text fill="#D9B8FF" font-family="Helvetica" font-size="17" lengthAdjust="spacing" textLength="87" x="274.25" y="464.5398">ip_address</text><line style="stroke:#000D19;stroke-width:0.5;" x1="198.5" x2="404.5" y1="478.5491" y2="478.5491"/><text fill="#D9B8FF" font-family="sans-serif" font-size="14" font-weight="bold" lengthAdjust="spacing" textLength="85" x="208.5" y="500.5442">ip_address</text><text fill="#D9B8FF" font-family="sans-serif" font-size="14" lengthAdjust="spacing" textLength="48" x="293.5" y="500.5442">: string</text><text fill="#D9B8FF" font-family="sans-serif" font-size="14" font-weight="bold" lengthAdjust="spacing" textLength="138" x="208.5" y="526.8411">ip_address_family</text><text fill="#D9B8FF" font-family="sans-serif" font-size="14" lengthAdjust="spacing" textLength="48" x="346.5" y="526.8411">: string</text></g><!--class resource--><g id="elem_resource"><rect codeLine="42" fill="#3D176E" height="310.7578" id="resource" rx="2.5" ry="2.5" style="stroke:#000D19;stroke-width:0.5;" width="227" x="79" y="7"/><ellipse cx="147.75" cy="26.8945" fill="#ADD1B2" rx="11" ry="11" style="stroke:#181818;stroke-width:1.0;"/><path d="M150.7188,32.5352 Q150.1406,32.832 149.5,32.9727 Q148.8594,33.1289 148.1563,33.1289 Q145.6563,33.1289 144.3281,31.4883 Q143.0156,29.832 143.0156,26.707 Q143.0156,23.582 144.3281,21.9258 Q145.6563,20.2695 148.1563,20.2695 Q148.8594,20.2695 149.5,20.4258 Q150.1563,20.582 150.7188,20.8789 L150.7188,23.5977 Q150.0938,23.0195 149.5,22.7539 Q148.9063,22.4727 148.2813,22.4727 Q146.9375,22.4727 146.25,23.5508 Q145.5625,24.6133 145.5625,26.707 Q145.5625,28.8008 146.25,29.8789 Q146.9375,30.9414 148.2813,30.9414 Q148.9063,30.9414 149.5,30.6758 Q150.0938,30.3945 150.7188,29.8164 L150.7188,32.5352 Z " fill="#000000"/><text fill="#D9B8FF" font-family="Helvetica" font-size="17" lengthAdjust="spacing" textLength="71" x="173.25" y="32.7798">resource</text><line style="stroke:#000D19;stroke-width:0.5;" x1="80" x2="305" y1="46.7891" y2="46.7891"/><text fill="#D9B8FF" font-family="sans-serif" font-size="14" font-weight="bold" lengthAdjust="spacing" textLength="29" x="90" y="68.7842">age</text><text fill="#D9B8FF" font-family="sans-serif" font-size="14" lengthAdjust="spacing" textLength="66" x="119" y="68.7842">: duration</text><text fill="#D9B8FF" font-family="sans-serif" font-size="14" font-weight="bold" lengthAdjust="spacing" textLength="43" x="90" y="95.0811">atime</text><text fill="#D9B8FF" font-family="sans-serif" font-size="14" lengthAdjust="spacing" textLength="70" x="133" y="95.0811">: datetime</text><text fill="#D9B8FF" font-family="sans-serif" font-size="14" font-weight="bold" lengthAdjust="spacing" textLength="43" x="90" y="121.3779">ctime</text><text fill="#D9B8FF" font-family="sans-serif" font-size="14" lengthAdjust="spacing" textLength="70" x="133" y="121.3779">: datetime</text><text fill="#D9B8FF" font-family="sans-serif" font-size="14" font-weight="bold" lengthAdjust="spacing" textLength="14" x="90" y="147.6748">id</text><text fill="#D9B8FF" font-family="sans-serif" font-size="14" lengthAdjust="spacing" textLength="48" x="104" y="147.6748">: string</text><text fill="#D9B8FF" font-family="sans-serif" font-size="14" font-weight="bold" lengthAdjust="spacing" textLength="33" x="90" y="173.9717">kind</text><text fill="#D9B8FF" font-family="sans-serif" font-size="14" lengthAdjust="spacing" textLength="48" x="123" y="173.9717">: string</text><text fill="#D9B8FF" font-family="sans-serif" font-size="14" font-weight="bold" lengthAdjust="spacing" textLength="90" x="90" y="200.2686">last_access</text><text fill="#D9B8FF" font-family="sans-serif" font-size="14" lengthAdjust="spacing" textLength="66" x="180" y="200.2686">: duration</text><text fill="#D9B8FF" font-family="sans-serif" font-size="14" font-weight="bold" lengthAdjust="spacing" textLength="90" x="90" y="226.5654">last_update</text><text fill="#D9B8FF" font-family="sans-serif" font-size="14" lengthAdjust="spacing" textLength="66" x="180" y="226.5654">: duration</text><text fill="#D9B8FF" font-family="sans-serif" font-size="14" font-weight="bold" lengthAdjust="spacing" textLength="48" x="90" y="252.8623">mtime</text><text fill="#D9B8FF" font-family="sans-serif" font-size="14" lengthAdjust="spacing" textLength="70" x="138" y="252.8623">: datetime</text><text fill="#D9B8FF" font-family="sans-serif" font-size="14" font-weight="bold" lengthAdjust="spacing" textLength="43" x="90" y="279.1592">name</text><text fill="#D9B8FF" font-family="sans-serif" font-size="14" lengthAdjust="spacing" textLength="48" x="133" y="279.1592">: string</text><text fill="#D9B8FF" font-family="sans-serif" font-size="14" font-weight="bold" lengthAdjust="spacing" textLength="34" x="90" y="305.4561">tags</text><text fill="#D9B8FF" font-family="sans-serif" font-size="14" lengthAdjust="spacing" textLength="171" x="124" y="305.4561">: dictionary[string, string]</text></g><!--reverse link aws_resource to aws_ec2_elastic_ip--><g id="link_aws_resource_aws_ec2_elastic_ip"><path codeLine="54" d="M101.6454,543.5638 C112.0954,576.2238 122.71,609.45 138.79,659.72 " fill="none" id="aws_resource-backto-aws_ec2_elastic_ip" style="stroke:#FFAF37;stroke-width:2.0;"/><polygon fill="none" points="96.16,526.42,95.9308,545.3923,107.36,541.7354,96.16,526.42" style="stroke:#FFAF37;stroke-width:2.0;"/></g><!--reverse link ip_address to aws_ec2_elastic_ip--><g id="link_ip_address_aws_ec2_elastic_ip"><path codeLine="55" d="M280.0055,556.5513 C269.6055,588.8013 260.88,615.81 246.67,659.85 " fill="none" id="ip_address-backto-aws_ec2_elastic_ip" style="stroke:#FFAF37;stroke-width:2.0;"/><polygon fill="none" points="285.53,539.42,274.2951,554.7098,285.7159,558.3928,285.53,539.42" style="stroke:#FFAF37;stroke-width:2.0;"/></g><!--reverse link resource to aws_resource--><g id="link_resource_aws_resource"><path codeLine="56" d="M135.3472,335.1394 C118.7772,384.9394 107.57,418.62 96.62,451.52 " fill="none" id="resource-backto-aws_resource" style="stroke:#FFAF37;stroke-width:2.0;"/><polygon fill="none" points="141.03,318.06,129.654,333.2451,141.0403,337.0337,141.03,318.06" style="stroke:#FFAF37;stroke-width:2.0;"/></g><!--reverse link resource to ip_address--><g id="link_resource_ip_address"><path codeLine="57" d="M250.1797,335.1237 C264.8197,378.7237 273.97,405.99 284.87,438.43 " fill="none" id="resource-backto-ip_address" style="stroke:#FFAF37;stroke-width:2.0;"/><polygon fill="none" points="244.45,318.06,244.4917,337.0336,255.8676,333.2138,244.45,318.06" style="stroke:#FFAF37;stroke-width:2.0;"/></g><!--SRC=[ZPFBRjim44Nt_We2sHarO2Tj7GVTf0QATXCKJNT5GOp8aKrO8eKXPS5z_7j9oGzQefBkh7iFxpn8RvL4XcNb3gp4CaEo4xjJkWA2aZqIcMPj2aFi9iyXlrlspKz6krU19oYHVSPYZqu9w1FVjqhiD5hBRYFh8uZTXaojPHVl2BJr5ceNKUi2h7rqZbHMEuoQaQliFi_xP3_qvaukbkznW1cII4TaFf_BnQgFl5hgnRdFnBFwXMmHB-t9E1oqEIZHKYzs6OYeoS6W9t-qnwyWfT8RzYxIldKzaKQwqf-t84qJw1mA6vUn3WcDErIu7ao5gtkPBvFmbp5OXCqnQ2n7SSlHV_cskQhOxybqgYeEHM44E6KqLt8wVV2PvFiwcjOQeSPS0KGAoOSDdDewKthBD1hb_m3xjxmofkXpqfIWT5_Lw1f3Evwr5yh3sDKOexJVKGu24mDKTLQqoqXLhqZjmVbZVWrIal-xNTkdiv7wDzgsFs1g4jZk6KWdi4lo-J8IXIuopw5KnI6HT5riWm6HDRKN5nIdoaxp0uNVNXC9hRSX_yokXV1uE0XnR36gq3fr5R9wJfceew6Jpi4EDbsY4k4OqE57vxqvCZ_zg5TR_V1dDfibdlKaMkeeaqWvINtl4lSF]--></g></svg>

<svg xmlns="http://www.w3.org/2000/svg" width="412" height="1004" viewBox="0 0 412 1004"><rect width="308" height="337.055" x="38.5" y="660.15" fill="#3D176E" rx="2.5" ry="2.5" style="stroke:#000d19;stroke-width:.5"/><circle cx="104.75" cy="680.044" r="11" fill="#ADD1B2" style="stroke:#181818;stroke-width:1"/><path d="M107.719 685.685q-.578.297-1.219.438-.64.156-1.344.156-2.5 0-3.828-1.64-1.312-1.657-1.312-4.782t1.312-4.781q1.328-1.657 3.828-1.657.703 0 1.344.157.656.156 1.219.453v2.719q-.625-.579-1.219-.844-.594-.281-1.219-.281-1.344 0-2.031 1.078-.687 1.062-.687 3.156t.687 3.172q.688 1.062 2.031 1.062.625 0 1.219-.265.594-.282 1.219-.86z"/><text x="130.25" y="685.93" fill="#D9B8FF" font-family="Helvetica" font-size="17" textLength="157">aws_ec2_elastic_ip</text><path d="M39.5 699.939h306" style="stroke:#000d19;stroke-width:.5"/><text x="49.5" y="721.934" fill="#D9B8FF" font-family="sans-serif" font-size="14" font-weight="bold" textLength="117">ip_allocation_id</text><text x="166.5" y="721.934" fill="#D9B8FF" font-family="sans-serif" font-size="14" textLength="48">: string</text><text x="49.5" y="748.231" fill="#D9B8FF" font-family="sans-serif" font-size="14" font-weight="bold" textLength="131">ip_association_id</text><text x="180.5" y="748.231" fill="#D9B8FF" font-family="sans-serif" font-size="14" textLength="48">: string</text><text x="49.5" y="774.528" fill="#D9B8FF" font-family="sans-serif" font-size="14" font-weight="bold" textLength="95">ip_carrier_ip</text><text x="144.5" y="774.528" fill="#D9B8FF" font-family="sans-serif" font-size="14" textLength="48">: string</text><text x="49.5" y="800.825" fill="#D9B8FF" font-family="sans-serif" font-size="14" font-weight="bold" textLength="178">ip_customer_owned_ip</text><text x="227.5" y="800.825" fill="#D9B8FF" font-family="sans-serif" font-size="14" textLength="48">: string</text><text x="49.5" y="827.122" fill="#D9B8FF" font-family="sans-serif" font-size="14" font-weight="bold" textLength="238">ip_customer_owned_ipv4_pool</text><text x="287.5" y="827.122" fill="#D9B8FF" font-family="sans-serif" font-size="14" textLength="48">: string</text><text x="49.5" y="853.419" fill="#D9B8FF" font-family="sans-serif" font-size="14" font-weight="bold" textLength="78">ip_domain</text><text x="127.5" y="853.419" fill="#D9B8FF" font-family="sans-serif" font-size="14" textLength="48">: string</text><text x="49.5" y="879.715" fill="#D9B8FF" font-family="sans-serif" font-size="14" font-weight="bold" textLength="202">ip_network_border_group</text><text x="251.5" y="879.715" fill="#D9B8FF" font-family="sans-serif" font-size="14" textLength="48">: string</text><text x="49.5" y="906.012" fill="#D9B8FF" font-family="sans-serif" font-size="14" font-weight="bold" textLength="186">ip_network_interface_id</text><text x="235.5" y="906.012" fill="#D9B8FF" font-family="sans-serif" font-size="14" textLength="48">: string</text><text x="49.5" y="932.309" fill="#D9B8FF" font-family="sans-serif" font-size="14" font-weight="bold" textLength="149">ip_public_ipv4_pool</text><text x="198.5" y="932.309" fill="#D9B8FF" font-family="sans-serif" font-size="14" textLength="48">: string</text><text x="49.5" y="958.606" fill="#D9B8FF" font-family="sans-serif" font-size="14" font-weight="bold" textLength="147">private_ip_address</text><text x="196.5" y="958.606" fill="#D9B8FF" font-family="sans-serif" font-size="14" textLength="48">: string</text><text x="49.5" y="984.903" fill="#D9B8FF" font-family="sans-serif" font-size="14" font-weight="bold" textLength="68">public_ip</text><text x="117.5" y="984.903" fill="#D9B8FF" font-family="sans-serif" font-size="14" textLength="48">: string</text><rect width="155" height="74.086" x="7" y="451.91" fill="#3D176E" rx="2.5" ry="2.5" style="stroke:#000d19;stroke-width:.5"/><circle cx="22" cy="471.805" r="11" fill="#ADD1B2" style="stroke:#181818;stroke-width:1"/><path d="M24.969 477.445q-.578.297-1.219.438-.64.156-1.344.156-2.5 0-3.828-1.64-1.312-1.657-1.312-4.782t1.312-4.781q1.328-1.656 3.828-1.656.703 0 1.344.156.656.156 1.219.453v2.719q-.625-.578-1.219-.844-.594-.281-1.219-.281-1.343 0-2.031 1.078-.687 1.062-.687 3.156t.687 3.172q.688 1.062 2.031 1.062.625 0 1.219-.265.594-.281 1.219-.86z"/><text x="41" y="477.69" fill="#D9B8FF" font-family="Helvetica" font-size="17" textLength="113">aws_resource</text><path d="M8 491.699h153" style="stroke:#000d19;stroke-width:.5"/><text x="18" y="513.694" fill="#D9B8FF" font-family="sans-serif" font-size="14" font-weight="bold" textLength="26">arn</text><text x="44" y="513.694" fill="#D9B8FF" font-family="sans-serif" font-size="14" textLength="48">: string</text><rect width="208" height="100.383" x="197.5" y="438.76" fill="#3D176E" rx="2.5" ry="2.5" style="stroke:#000d19;stroke-width:.5"/><circle cx="248.75" cy="458.654" r="11" fill="#ADD1B2" style="stroke:#181818;stroke-width:1"/><path d="M251.719 464.295q-.578.297-1.219.438-.64.156-1.344.156-2.5 0-3.828-1.64-1.312-1.657-1.312-4.782t1.312-4.781q1.328-1.656 3.828-1.656.703 0 1.344.156.656.156 1.219.453v2.719q-.625-.579-1.219-.844-.594-.281-1.219-.281-1.344 0-2.031 1.078-.687 1.062-.687 3.156t.687 3.172q.688 1.062 2.031 1.062.625 0 1.219-.265.594-.281 1.219-.86z"/><text x="274.25" y="464.54" fill="#D9B8FF" font-family="Helvetica" font-size="17" textLength="87">ip_address</text><path d="M198.5 478.549h206" style="stroke:#000d19;stroke-width:.5"/><text x="208.5" y="500.544" fill="#D9B8FF" font-family="sans-serif" font-size="14" font-weight="bold" textLength="85">ip_address</text><text x="293.5" y="500.544" fill="#D9B8FF" font-family="sans-serif" font-size="14" textLength="48">: string</text><text x="208.5" y="526.841" fill="#D9B8FF" font-family="sans-serif" font-size="14" font-weight="bold" textLength="138">ip_address_family</text><text x="346.5" y="526.841" fill="#D9B8FF" font-family="sans-serif" font-size="14" textLength="48">: string</text><rect width="227" height="310.758" x="79" y="7" fill="#3D176E" rx="2.5" ry="2.5" style="stroke:#000d19;stroke-width:.5"/><circle cx="147.75" cy="26.895" r="11" fill="#ADD1B2" style="stroke:#181818;stroke-width:1"/><path d="M150.719 32.535q-.578.297-1.219.438-.64.156-1.344.156-2.5 0-3.828-1.64-1.312-1.657-1.312-4.782t1.312-4.781q1.328-1.656 3.828-1.656.703 0 1.344.156.656.156 1.219.453v2.719q-.625-.578-1.219-.844-.594-.281-1.219-.281-1.344 0-2.031 1.078-.687 1.062-.687 3.156t.687 3.172q.688 1.062 2.031 1.062.625 0 1.219-.265.594-.281 1.219-.86z"/><text x="173.25" y="32.78" fill="#D9B8FF" font-family="Helvetica" font-size="17" textLength="71">resource</text><path d="M80 46.789h225" style="stroke:#000d19;stroke-width:.5"/><text x="90" y="68.784" fill="#D9B8FF" font-family="sans-serif" font-size="14" font-weight="bold" textLength="29">age</text><text x="119" y="68.784" fill="#D9B8FF" font-family="sans-serif" font-size="14" textLength="66">: duration</text><text x="90" y="95.081" fill="#D9B8FF" font-family="sans-serif" font-size="14" font-weight="bold" textLength="43">atime</text><text x="133" y="95.081" fill="#D9B8FF" font-family="sans-serif" font-size="14" textLength="70">: datetime</text><text x="90" y="121.378" fill="#D9B8FF" font-family="sans-serif" font-size="14" font-weight="bold" textLength="43">ctime</text><text x="133" y="121.378" fill="#D9B8FF" font-family="sans-serif" font-size="14" textLength="70">: datetime</text><text x="90" y="147.675" fill="#D9B8FF" font-family="sans-serif" font-size="14" font-weight="bold" textLength="14">id</text><text x="104" y="147.675" fill="#D9B8FF" font-family="sans-serif" font-size="14" textLength="48">: string</text><text x="90" y="173.972" fill="#D9B8FF" font-family="sans-serif" font-size="14" font-weight="bold" textLength="33">kind</text><text x="123" y="173.972" fill="#D9B8FF" font-family="sans-serif" font-size="14" textLength="48">: string</text><text x="90" y="200.269" fill="#D9B8FF" font-family="sans-serif" font-size="14" font-weight="bold" textLength="90">last_access</text><text x="180" y="200.269" fill="#D9B8FF" font-family="sans-serif" font-size="14" textLength="66">: duration</text><text x="90" y="226.565" fill="#D9B8FF" font-family="sans-serif" font-size="14" font-weight="bold" textLength="90">last_update</text><text x="180" y="226.565" fill="#D9B8FF" font-family="sans-serif" font-size="14" textLength="66">: duration</text><text x="90" y="252.862" fill="#D9B8FF" font-family="sans-serif" font-size="14" font-weight="bold" textLength="48">mtime</text><text x="138" y="252.862" fill="#D9B8FF" font-family="sans-serif" font-size="14" textLength="70">: datetime</text><text x="90" y="279.159" fill="#D9B8FF" font-family="sans-serif" font-size="14" font-weight="bold" textLength="43">name</text><text x="133" y="279.159" fill="#D9B8FF" font-family="sans-serif" font-size="14" textLength="48">: string</text><text x="90" y="305.456" fill="#D9B8FF" font-family="sans-serif" font-size="14" font-weight="bold" textLength="34">tags</text><text x="124" y="305.456" fill="#D9B8FF" font-family="sans-serif" font-size="14" textLength="171">: dictionary[string, string]</text><path fill="none" d="M101.645 543.564c10.45 32.66 21.065 65.886 37.145 116.156m-42.63-133.3-.23 18.972 11.43-3.657z" style="stroke:#ffaf37;stroke-width:2"/><g fill="none"><path d="M280.006 556.551c-10.4 32.25-19.126 59.259-33.336 103.299" style="stroke:#ffaf37;stroke-width:2"/><path d="m285.53 539.42-11.235 15.29 11.42 3.683z" style="stroke:#ffaf37;stroke-width:2"/></g><path fill="none" d="M135.347 335.14c-16.57 49.8-27.777 83.48-38.727 116.38m44.41-133.46-11.376 15.185 11.386 3.789zm109.15 17.064c14.64 43.6 23.79 70.866 34.69 103.306m-40.42-120.37.042 18.974 11.376-3.82z" style="stroke:#ffaf37;stroke-width:2"/></svg>
